assets/images/whatsapp.svg

<svg width="20" height="20" viewBox="0 0 20 20" fill="none" xmlns="http://www.w3.org/2000/svg">
<path d="M16.7208 2.77713C14.8781 0.991832 12.4212 0 9.82776 0C4.43614 0 0.0682473 4.23182 0.0682473 9.45547C0.0682473 11.1085 0.545987 12.7616 1.36497 14.1501L0 19.0432L5.18687 17.7207C6.62009 18.4481 8.1898 18.8448 9.82776 18.8448C15.2194 18.8448 19.5873 14.613 19.5873 9.38935C19.519 6.94283 18.5635 4.56243 16.7208 2.77713ZM14.5369 12.8277C14.3321 13.3567 13.3767 13.8857 12.8989 13.9518C12.4894 14.0179 11.9435 14.0179 11.3975 13.8857C11.0562 13.7534 10.5785 13.6212 10.0325 13.3567C7.57556 12.3648 6.00585 9.98445 5.86936 9.78608C5.73286 9.65383 4.84563 8.52976 4.84563 7.33956C4.84563 6.14936 5.45987 5.62038 5.66461 5.35589C5.86936 5.09141 6.14235 5.09141 6.34709 5.09141C6.48359 5.09141 6.68833 5.09141 6.82483 5.09141C6.96133 5.09141 7.16607 5.02528 7.37082 5.48814C7.57556 5.95099 8.0533 7.14119 8.12155 7.20731C8.1898 7.33956 8.1898 7.4718 8.12155 7.60405C8.0533 7.73629 7.98505 7.86854 7.84855 8.00078C7.71206 8.13302 7.57556 8.33139 7.50731 8.39751C7.37082 8.52976 7.23432 8.662 7.37082 8.86037C7.50732 9.12486 7.98505 9.8522 8.73579 10.5134C9.69126 11.3069 10.442 11.5714 10.715 11.7036C10.988 11.8359 11.1245 11.7697 11.261 11.6375C11.3975 11.5053 11.8752 10.9763 12.0117 10.7118C12.1482 10.4473 12.3529 10.5134 12.5577 10.5795C12.7624 10.6457 13.9909 11.2408 14.1957 11.373C14.4686 11.5053 14.6051 11.5714 14.6734 11.6375C14.7416 11.8359 14.7416 12.2987 14.5369 12.8277Z" fill="#004B98"/>
</svg>

<svg width="20" height="20" fill="none" xmlns="http://www.w3.org/2000/svg"><path d="M16.72 2.777A9.87 9.87 0 0 0 9.829 0C4.436 0 .068 4.232.068 9.455c0 1.653.478 3.307 1.297 4.695L0 19.043l5.187-1.322a10.206 10.206 0 0 0 4.64 1.124c5.392 0 9.76-4.232 9.76-9.456-.068-2.446-1.023-4.827-2.866-6.612Zm-2.183 10.05c-.205.53-1.16 1.059-1.638 1.125-.41.066-.955.066-1.501-.066-.342-.133-.82-.265-1.365-.53-2.457-.991-4.027-3.372-4.164-3.57-.136-.132-1.023-1.256-1.023-2.446 0-1.19.614-1.72.819-1.984.204-.265.477-.265.682-.265h.478c.136 0 .341-.066.546.397.205.463.682 1.653.75 1.72a.41.41 0 0 1 0 .396c-.068.132-.136.265-.272.397-.137.132-.273.33-.342.397-.136.132-.273.264-.136.462.136.265.614.992 1.365 1.653.955.794 1.706 1.058 1.979 1.19.273.133.41.067.546-.066.137-.132.614-.66.75-.925.137-.265.342-.199.547-.133.204.067 1.433.662 1.638.794.273.132.41.198.477.264.069.199.069.662-.136 1.19Z" fill="#004B98"/></svg>
